X:1
T:John Barleycorn (3)
M:6/8
L:1/8
K:G
 B,| E2 E F2 E| ED B,- B,2 B,| G2 G A2 A| B3- BB-d| e2 d B2 A| GE E- E2 B,|\
 E E2 F2 D| E3- E3| E3 F2 E|E-D D- D2 z| G2 G A2 A| B3- BB d| e2 d B2 A|\
 GE E- E2 B,| E E2 F2 E| E3- E3|
